X: 24306
T: Lost, The
R: polka
M: 2/4
K: Gmajor
|:BA BA|G2 GA|BA Be|d2 d^c/d/|
ed ed|d2 dB|cd/c/ BA|1 G2 GA:|2 G2 Bc||
|:d^c/d/ ge|d2 dB|de/d/ BA|AB cd|
ed ed|d2 dB|cd/c/ BA|1 G2 Bc:|2 G2 GA||

